X: 3
T: The Factory Smoke
R: hornpipe
M: 4/4
L: 1/8
K: Gmin
dc|BAG^F GABc|d2G2 G2bg|fedc BcdB|(3cdc (3BAG Fedc|BAG^F GABc|dg^fa gfgd|edcB ceAc|B2G2 G2:||:ga|bgdB gdBG|DGBd gdbg|afcA fcAF|CFAc fcAc|BAG^F GABc|dg^fa gfgd|edcB ceAc|B2G2 G2:|dc|BAG^F GABc|d2G2 G2bg|fedc BcdB|(3cdB (3ABG Fedc|BAG^F GABc|dg^fa gfgd|edcB ceAc|B2G2 G2:||:ga|bgdB gdBG|DGBd gdbg|afcA fcAF|CFAc fcAc|BAG^F GABc|dg^fa gfgd|edcB ceAc|B2G2 G2:|dc|BAG^F GABc|d2G2 G2bg|fedc BcdB|(3cdB (3ABG F2dc|BAG^F GABc|dg^fa g2g=f|edcB cdAc|B2G2 G2:||:ga|bgdB gdBG|DGBd gabg|afcA fcAF|CFAc fcAc|BAG^F GABc|dg^fa gfgd|edcB cdAc|B2G2 G2:|


Tune 1985	Setting 23470

